icons/op-add-24.svg

<svg xmlns="http://www.w3.org/2000/svg" width="24" height="24" viewBox="0 0 24 24"><path d="M13 11V4h-2v7H4v2h7v7h2v-7h7v-2h-7Z"/></svg>

<svg width="24" height="24" viewBox="0 0 24 24" fill="none" xmlns="http://www.w3.org/2000/svg">
<path d="M13 11V4H11V11H4V13H11V20H13V13H20V11H13Z" fill="black"/>
</svg>
